src/qt/spark/res/img/ic-submenu-staking.svg

<?xml version="1.0" encoding="UTF-8"?>
<svg width="28px" height="24px" viewBox="0 0 28 24" version="1.1" xmlns="http://www.w3.org/2000/svg" xmlns:xlink="http://www.w3.org/1999/xlink">
    <!-- Generator: Sketch 52.6 (67491) - http://www.bohemiancoding.com/sketch -->
    <title>Sub Menu Locked Copy</title>
    <desc>Created with Sketch.</desc>
    <g id="Sub-Menu-Locked-Copy" stroke="none" stroke-width="1" fill="none" fill-rule="evenodd">
        <g id="ic-unlock-staking" transform="translate(3.000000, 0.000000)">
            <g id="Group_8891">
                <polygon id="Rectangle_4445" points="0 0 24 0 24 24 0 24"></polygon>
            </g>
            <path d="M21.448,11.966 L22.707,10.707 L21.293,9.293 L20.034,10.552 C18.5867703,9.34548559 16.8530091,8.53233297 15,8.191 L15,7 C15,4.23857625 12.7614237,2 10,2 C7.23857625,2 5,4.23857625 5,7 L5,8 L4,8 L4,18 L11.16,18 L13.16,16 L6,16 L6,10 L14,10 L14,15.16 L16,13.16 L16,10.525 C16.9450768,10.8594071 17.8275801,11.3494989 18.611,11.975 L9.793,20.793 L11.207,22.207 L20.025,13.389 C21.3039398,14.9793801 22.0007997,16.959168 22,19 L22,20 L24,20 L24,19 C24.0014312,16.4284525 23.098013,13.9383884 21.448,11.966 Z M13,8 L7,8 L7,7 C7,5.34314575 8.34314575,4 10,4 C11.6568542,4 13,5.34314575 13,7 L13,8 Z" id="Path_18910" fill="#FFFFFF" fill-rule="nonzero"></path>
        </g>
    </g>
</svg>

<?xml version="1.0" encoding="utf-8"?>
<!-- Generator: Adobe Illustrator 26.0.1, SVG Export Plug-In . SVG Version: 6.00 Build 0)  -->
<svg version="1.1" id="Ebene_1" xmlns="http://www.w3.org/2000/svg" xmlns:xlink="http://www.w3.org/1999/xlink" x="0px" y="0px"
	 viewBox="0 0 28 24" style="enable-background:new 0 0 28 24;" xml:space="preserve">
<style type="text/css">
	.st0{fill:none;}
	.st1{fill:#FFFFFF;}
</style>
<desc>Created with Sketch.</desc>
<g id="Sub-Menu-Locked-Copy">
	<g id="ic-unlock-staking" transform="translate(3.000000, 0.000000)">
		<g id="Group_8891">
			<polygon id="Rectangle_4445" class="st0" points="0,0 24,0 24,24 0,24 			"/>
		</g>
		<path id="Path_18910" class="st1" d="M21.4,12l1.3-1.3l-1.4-1.4L20,10.6c-1.4-1.2-3.2-2-5-2.4V7c0-2.8-2.2-5-5-5S5,4.2,5,7v1H4v10
			h7.2l2-2H6v-6h8v5.2l2-2v-2.6c0.9,0.3,1.8,0.8,2.6,1.5l-8.8,8.8l1.4,1.4l8.8-8.8c1.3,1.6,2,3.6,2,5.6v1h2v-1
			C24,16.4,23.1,13.9,21.4,12z M13,8H7V7c0-1.7,1.3-3,3-3s3,1.3,3,3V8z"/>
	</g>
</g>
</svg>
